X: 36313
T: Seamus O'Shanahan's
R: jig
M: 6/8
K: Eminor
|:B2 E EFG|FDD DFA|BAG FGA|G3 FDA|
B3 EFG|FDD DFA|BAG FGA|1 GEE EDA:|2 GEE EFA||
|:A2 c cdc|BGE EAG|F2 A AGF|GBB BGE|
ABc cdc|BGE EAG|FGA GFD|E3 EFA|
A2 c cdc|BGE EAG|F2 A AGF|GBB BGE|
Acd edc|BGE EAG|FGA FED|E3 EDA||

